logo/thymeleaf-icon.svg

<?xml version="1.0" encoding="UTF-8"?>
<svg width="256px" height="257px" viewBox="0 0 256 257" version="1.1" xmlns="http://www.w3.org/2000/svg" preserveAspectRatio="xMidYMid">
    <title>Thymeleaf</title>
    <g>
        <rect fill="#005F0F" x="-1.97940601e-14" y="0" width="256" height="256.431459"></rect>
        <path d="M218.18659,34.9646529 C186.658889,73.5985277 148.154821,105.956763 107.093448,134.007508 C93.7448358,143.562742 79.0086196,152.067171 68.7461212,165.152069 C64.826548,172.038399 63.8806411,181.735819 70.5820665,187.323565 C81.7424453,197.841003 99.1260588,200.128855 113.107402,194.240887 C132.681714,186.785438 146.200676,169.814244 157.56475,152.991433 C182.923413,116.457793 198.301888,74.4363832 218.18659,34.9646529 L218.18659,34.9646529 Z" fill="#FFFFFF"></path>
        <path d="M200.104098,48.3235138 C160.850157,79.4260876 129.451869,96.234868 89.3072076,110.69382 C77.1912414,115.878186 64.2064086,122.457498 58.5777399,135.178978 C52.7825381,147.214547 54.6819014,163.998413 61.3299099,175.142481 C60.8325531,170.451098 63.3388374,162.871696 67.0675159,159.313451 C79.4403159,145.534702 95.5558764,136.506786 109.73129,126.044423 L109.765137,126.01559 L109.799123,125.992747 C142.605268,103.462527 173.361702,77.7170478 200.104098,48.3235138 L200.104098,48.3235138 Z" fill="#AEA99F"></path>
    </g>
</svg>

<svg viewBox="0 0 256 257" xmlns="http://www.w3.org/2000/svg"><path fill="#005F0F" d="M-.001 0h256v256.43h-256Z"/><path fill="#FFF" d="M218.18 34.96c-31.53 38.63-70.04 70.99-111.1 99.04 -13.35 9.55-28.09 18.05-38.35 31.14 -3.92 6.88-4.87 16.58 1.83 22.17 11.16 10.51 28.54 12.8 42.52 6.91 19.57-7.46 33.09-24.43 44.45-41.25 25.35-36.54 40.73-78.56 60.62-118.03v0Z"/><path fill="#AEA99F" d="M200.1 48.32c-39.26 31.1-70.66 47.91-110.8 62.37 -12.12 5.18-25.11 11.76-30.73 24.48 -5.8 12.03-3.9 28.81 2.75 39.96 -.5-4.7 2-12.28 5.73-15.83 12.37-13.78 28.48-22.81 42.66-33.27l.03-.03 .03-.03c32.8-22.54 63.56-48.28 90.3-77.67v0Z"/></svg>
